!!!!SEGMENT: pl-wtm--iii-41-637-3--001-003_joteyko-tadeusz--sonatine-f-dur-op-18-no-3-iii-la-fete-au-village.krn
!!!cenid: 19xx:111
!!!COM: Joteyko, Tadeusz
!!!COM-rismID: pe50046072
!!!CDT: 1872-1932
!!!CNT: Polish
!!!OPR: Sonatine F-dur Op. 18 No. 3
!!!OTL: III. La féte au village
!!!OMV: 003
!!!PDT:
!!!AGN: Secular; Sonata
!!!YEC: Copyright 2022 Narodowy Instytut Fryderyka Chopina (https://polishscores.org)
!!!YEM: License CC-BY-4.0 (https://creativecommons.org/licenses/by/4.0)
!!!SMS-siglum: PL-Wtm
!!!SMS-shelfmark: III.41.637-3
!!!SMS-variant:
!!!SMS-altvar:
!!!SMS-shelfwork: 001-003 M
!!!NIFC-rismSourceID: 1001141265
!!!NIFC-rismChildID: 1001141265
!!!NIFC-islandoraID: pl-wtm:20267
!!!URL-pdf-islandora: https://repozytorium.nifc.pl/islandora/object/pl-wtm%3A20267/datastream/PDF/view
!!!URL-scan: https://polish.musicsources.pl/pl/lokalizacje/galeria/druki-muzyczne/17523/5 @EN{Scan on Polish Music Sources Website} @PL{Skany w portalu Dziedzictwo Muzyki Polskiej w otwartym dostępie}
!!!IIIF:
!!!ONB-nifc: UWAGA: części Sonatiny: I. Le printemps, II. Noel, III. La fete au village
!!!AIN: 1 piano
!!!key: F
**kern	**fing	**kern	**fing	**dynam
*part1	*	*part1	*	*part1
*staff2	*	*staff1	*	*staff1/2
*group1	*	*group1	*	*
*ICklav	*	*ICklav	*	*
*Ipiano	*	*Ipiano	*	*
*I"PIANO.	*	*I"PIANO.	*	*
*I'	*	*I'	*	*
*clefF4	*	*clefG2	*	*
*kcancel	*	*kcancel	*	*
*k[b-]	*	*k[b-]	*	*
*F:	*	*F:	*	*
*M3/8	*	*M3/8	*	*
=1	=1	=1	=1	=1
*	*below	*	*	*
!!LO:TX:a:t=Allegro all’ Oberek.
!	!	!LO:TX:b:i:t=Legato.	!	!LO:DY:b:rj
8cL 8A 8F\	1 3 5	8ccc^\L	5	p
8c 8A 8F\	.	8aa\	3	.
8cJ 8A 8F\	.	8ff\J	1	.
=2	=2	=2	=2	=2
8cL 8B- 8F\	1 2 5	16ee\LL	2	.
.	.	16ff\J	3	.
8c 8B- 8F\	.	8gg\	4	.
8cJ 8B- 8F\	.	8cc\J	1	.
=3	=3	=3	=3	=3
8cL 8G 8F\	1 4 5	8bb-^\L	4	.
8c 8G 8F\	.	8gg\	2	.
8cJ 8G 8F\	.	8ee\J	1	.
=4	=4	=4	=4	=4
8cL 8A 8F\	.	16ff\LL	2	.
.	.	16aa\J	4	.
8c 8A 8F\	.	8ccc\	5	.
8cJ 8A 8F\	.	8ff\J	1	.
=5	=5	=5	=5	=5
8cL 8A 8F\	.	8ccc^\L	5	.
8c 8A 8F\	.	8aa\	3	.
8cJ 8A 8F\	.	8ff\J	1	.
=6	=6	=6	=6	=6
8cL 8B- 8F\	.	16ee\LL	2	.
.	.	16ff\J	3	.
8c 8B- 8F\	.	8gg\	4	.
8cJ 8B- 8F\	.	8cc\J	1	.
!!LO:LB:g=original
=7	=7	=7	=7	=7
8cL 8B- 8F\	.	16ddd\LL	5	.
.	.	16ccc\	4	.
8c 8B- 8F\	.	16bb-\	3	.
.	.	16aa\	2	.
8cJ 8B- 8F\	.	16bb-\	3	.
.	.	16gg\JJ	1	.
=8	=8	=8	=8	=8
8cL 8A 8F\	.	8ff\L	2	.
8cJ 8A 8F^\	.	8ff^\J	3	.
8r	.	8r	.	.
=9	=9	=9	=9	=9
8FF/L	5	8ccc^\L	5	mf
8F/	1	16aa\L	3	.
.	.	16gg\	2	.
8C/J	2	16aa\	3	.
.	.	16ff\JJ	1	.
=10	=10	=10	=10	=10
8FF/L	5	16ee\LL	2	.
.	.	16ff\	3	.
8E/	1	16gg\	4	.
.	.	16ff\	.	.
8C/J	2	16gg\	.	.
.	.	16cc\JJ	1	.
=11	=11	=11	=11	=11
8FF/L	.	8bb-^\L	4	.
8E/	.	16gg\L	2	.
.	.	16ff\	1	.
8C/J	.	16gg\	4	.
.	.	16ee\JJ	2	.
=12	=12	=12	=12	=12
8FF/L	.	16ff\LL	1	.
.	.	16gg\	.	.
8F/	.	16aa\	3	.
.	.	16bb-\	4	.
8C/J	.	16ccc\	5	.
.	.	16ff\JJ	1	.
!!LO:LB:g=original
=13	=13	=13	=13	=13
8FF/L	.	8ccc^\L	5	.
8F/	.	16aa\L	3	.
.	.	16gg\	.	.
8C/J	.	16aa\	.	.
.	.	16ff\JJ	1	.
=14	=14	=14	=14	=14
8FF/L	.	16ee\LL	2	.
.	.	16ff\	3	.
8E/	.	16gg\	4	.
.	.	16ff\	.	.
8C/J	.	16gg\	.	.
.	.	16cc\JJ	1	.
=15	=15	=15	=15	=15
8FF/L	.	16ddd\LL	5	.
.	.	16ccc\	.	.
8E/	.	16bb-\	.	.
.	.	16aa\	2	.
8C/J	.	16bb-\	3	.
.	.	16gg\JJ	1	.
=16	=16	=16	=16	=16
8FF/L	.	8ff\L	2	.
8FJ 8FF^>/	.	8fffJ 8ccc 8aa^\	.	.
8r	.	8r	.	.
=17	=17	=17	=17	=17
8GG\L	.	8ffL 8dd\	1 3	f
16F#X\L	3	8aa 8ff\	3 5	.
16G\	.	.	.	.
16A\	.	8aaJ 8ff\	.	.
16G\JJ	2	.	.	.
=18	=18	=18	=18	=18
8C\L	5	8.ggL 8.ee^\	2 4	.
8e 8c 8G\	.	.	.	.
.	.	16ee\L	2	.
8eJ 8c 8G\	.	16cc\	1	.
.	.	16ee\JJ	3	.
=19	=19	=19	=19	=19
8GG\L	.	8ddL 8bn\	1 2	.
16F#X\L	3	8ff 8dd\	2 4	.
16G\	.	.	.	.
16A\	.	8ffJ 8dd\	.	.
16G\JJ	.	.	.	.
!!LO:LB:g=original
=20	=20	=20	=20	=20
8C\L	.	16ee\LL	3	.
.	.	16dd\	.	.
8e 8c 8G\	.	16cc\	.	.
.	.	16ee\J	.	.
8eJ 8c 8G\	.	8gg\J	.	.
=21	=21	=21	=21	=21
16r	.	8ffL 8dd\	1 3	.
16GG/LL	5	.	.	.
16AA/	.	8aa 8ff\	.	.
16BBn/	.	.	.	.
16C/	.	8aaJ 8ff\	.	.
16BB/JJ	2	.	.	.
=22	=22	=22	=22	=22
16C\LL	3	8.ggL 8.ee^\	2 4	.
16D\	2	.	.	.
16E\	1	.	.	.
16C\	5	16ee\L	.	.
16E\	4	16cc\	.	.
16G\JJ	2	16ee\JJ	2	.
=23	=23	=23	=23	=23
16A\LL	1	8ff#XL 8cc\	1 3	.
16G\	.	.	.	.
16F#X\	.	8bbn 8dd\	.	.
16D\	5	.	.	.
16E\	3	8aaJ 8cc\	.	.
16F#\JJ	2	.	.	.
=24	=24	=24	=24	=24
8G/L	1	4gg 4bn\	.	.
8GG/J	5	.	.	.
8r	.	8r	.	.
=25	=25	=25	=25	=25
(8G\L	5	16ffnLL 16dd\	1 3	f
.	.	16ggJ 16ee\	2 4	2 4
8Bn\	3	8aa 8ff\	3 5	3 5
8G\J	.	8aaJ 8ff\	.	.
=26	=26	=26	=26	=26
16c\LL	3	8.ggL 8.ee^\	2 4	.
16d\J	2	.	.	.
8e\	1	.	.	.
.	.	16ee\L	2	.
8G\J)	5	16cc\	1	.
.	.	16ee\JJ	4	.
!!LO:LB:g=original
=27	=27	=27	=27	=27
(8G#X\L	4	16ddLL 16bn\	1 3	.
.	.	16eeJ 16cc\	.	.
8Bn\	.	8ff 8dd\	.	.
8G#\J	.	8ffJ 8dd\	.	.
=28	=28	=28	=28	=28
16A\LL	3	8.eeL 8.cc^\	2 4	.
16Bn\J	2	.	.	.
8c\	1	.	.	.
.	.	16cc\L	2	.
8E\J)	5	16a\	1	.
.	.	16cc\JJ	3	.
=29	=29	=29	=29	=29
8d 8A 8F\	.	16dd\LL	5	.
.	.	16cc\	.	.
8r	.	16bn\	.	.
.	.	16a\	2	.
8r	.	16g\	1	.
.	.	16f\JJ	3	.
=30	=30	=30	=30	=30
8c 8G\	.	16e\LL	2	.
.	.	16f\	1	.
8r	.	16g\	.	.
.	.	16a\	3	.
8r	.	16bn\	4	.
.	.	16cc\JJ	1	.
=31	=31	=31	=31	=31
8G\L	5	16dd\LL	2	.
.	.	16ee\	3	.
16g\L	1	16ff\	1	.
16f\	.	16gg\	.	.
16e\	.	16aa\	.	.
16d\JJ	4	16bbn\JJ	4	.
=32	=32	=32	=32	=32
8c\L	1	8ccc\L	5	.
8C^\J	5	8cccJ 8gg 8ee^\	.	.
8r	.	8r	.	.
=33	=33	=33	=33	=33
8F\L	3	8ccc^\L	5	p
8G\	.	8aa\	3	.
8A\J	.	8ff\J	1	.
!!LO:LB:g=original
=34	=34	=34	=34	=34
8G\L	2	16ee\LL	2	.
.	.	16ff\J	.	.
8C\	5	8gg\	.	.
8D\J	4	8cc\J	.	.
=35	=35	=35	=35	=35
8E\L	.	8bb-^\L	4	.
8F\	.	8gg\	2	.
8G\J	1	8ee\J	1	.
=36	=36	=36	=36	=36
8A\L	2	16ff\LL	2	.
.	.	16aa\J	4	.
8F\	4	8ccc\	5	.
8A\J	1	8ff\J	1	.
=37	=37	=37	=37	=37
8F\L	2	8ccc^\L	5	.
8E\	.	8aa\	3	.
8D\J	4	8ff\J	1	.
=38	=38	=38	=38	=38
8C/L	5	16ee\LL	2	.
.	.	16ff\J	.	.
8D/	.	8gg\	.	.
8E/J	.	8cc\J	.	.
=39	=39	=39	=39	=39
8F\L	2	16ddd\LL	5	.
.	.	16ccc\	.	.
8c\	1	16bb-\	.	.
.	.	16aa\	.	.
8C\J	.	16bb-\	.	.
.	.	16gg\JJ	1	.
=40	=40	=40	=40	=40
8F/L	.	8ff\L	2	.
8FF^/J	.	8fffJ 8ccc 8aa^\	.	.
8r	.	8r	.	.
*clefG2	*	*	*	*
!!LO:PB:g=original
=41	=41	=41	=41	=41
8c#X/L	3	8.aa^\L	5	p
8e/	1	.	.	.
.	.	16gg\L	.	.
8A/J	5	16ee\	.	.
.	.	16gg\JJ	.	.
=42	=42	=42	=42	=42
8d/L	2	8.ff^\L	3	.
8f/	.	.	.	.
.	.	16ee\L	.	.
8A/J	.	16dd\	.	.
.	.	16ff\JJ	4	.
=43	=43	=43	=43	=43
8e/L	2	8.ee^\L	3	.
8g/	.	.	.	.
.	.	16cc#X\L	.	.
8A/J	.	16a\	.	.
.	.	16cc#\JJ	.	.
=44	=44	=44	=44	=44
8f/L	2	16dd\LL	1	.
.	.	16ee\J	2	.
8a/	.	8ff\	3	.
8A/J	.	8dd\J	.	.
=45	=45	=45	=45	=45
8e/L	.	16aa^\LL	5	.
.	.	16gg\	.	.
8g/	.	16ee\	.	.
.	.	16a\	.	.
8A/J	.	16ee\	3	.
.	.	16gg\JJ	5	.
=46	=46	=46	=46	=46
8d/L	.	16ff^\LL	4	.
.	.	16ee\	.	.
8f/	.	16dd\	.	.
.	.	16a\	.	.
8A/J	.	16dd\	3	.
.	.	16ff\JJ	5	.
*clefF4	*	*	*	*
!!LO:LB:g=original
=47	=47	=47	=47	=47
8e\L	.	16ee\LL	4	.
.	.	16dd\J	3	.
(8qd#X/	.	.	.	.
8e\)	.	8cc#\	2	.
8E\J	.	8bn\J	1	.
=48	=48	=48	=48	=48
8eL 8A\	.	4a/	3	.
8e 8A\	.	.	.	.
8eJ 8A\	.	8r	.	.
=49||	=49||	=49||	=49||	=49||
*k[f#c#g#]	*	*k[f#c#g#]	*	*
8eL 8A\	.	16b\LL	1	.
.	.	16dd\	2	.
8e 8A\	.	16ff#\	3	.
.	.	16gg#\	4	.
8eJ 8A\	.	16aa\	5	.
.	.	16ff#\JJ	4	.
=50	=50	=50	=50	=50
.	.	(16qqee/LL	3	.
.	.	16qqff#/JJ	.	.
8eL 8A\	.	16ee\LL)	.	.
.	.	16cc#\J	2	.
8e 8A\	.	8a\	1	.
8eJ 8A\	.	8cc#\J	4	.
=51	=51	=51	=51	=51
8eL 8A\	.	16b/LL	3	.
.	.	16g#/J	2	.
8e 8A\	.	8f#/	1	.
8eJ 8A\	.	8g#/J	2	.
=52	=52	=52	=52	=52
.	.	(8qg#/	3	.
8EL 8AA/	.	4.e^/)	1	.
8E 8AA/	.	.	.	.
8EJ 8AA/	.	.	.	.
!!LO:LB:g=original
=53	=53	=53	=53	=53
8EL 8AA/	.	16b\LL	1	.
.	.	16dd\	.	.
8E 8AA/	.	16ff#\	.	.
.	.	16gg#\	.	.
8EJ 8AA/	.	16aa\	5	.
.	.	16ff#\JJ	4	.
=54	=54	=54	=54	=54
.	.	(16qqee/LL	3	.
.	.	16qqff#/JJ	.	.
8EL 8AA/	.	16ee\LL)	.	.
.	.	16cc#\J	.	.
8E 8AA/	.	8a\	.	.
8EJ 8AA/	.	8cc#\J	3	.
=55	=55	=55	=55	=55
8EL 8AA/	.	16dd/LL	4	.
.	.	16b/J	2	.
8E 8AA/	.	8f#/	1	.
8EJ 8AA/	.	8g#/J	2	.
=56	=56	=56	=56	=56
8EL 8AA/	.	4.a^>/	3	.
8E 8AA/	.	.	.	.
8EJ 8AA/	.	.	.	.
=57	=57	=57	=57	=57
.	.	(8qff#/	.	.
8BL 8E\	.	4.ee^\)	.	.
8B 8E\	.	.	.	.
8BJ 8E\	.	.	.	.
=58	=58	=58	=58	=58
.	.	(8qgg#/	.	<
8eL 8A\	.	4.aa^\)	.	.
8e 8A\	.	.	.	.
8eJ 8A\	.	.	.	[[
*clefG2	*	*	*	*
!!LO:LB:g=original
=59	=59	=59	=59	=59
.	.	(8qfff#/	.	.
8bL 8e/	.	4.eee^\)	.	.
8b 8e/	.	.	.	.
8bJ 8e/	.	.	.	.
=60	=60	=60	=60	=60
.	.	(8qggg#/	.	>
4ee 4a\	.	8aaa\L)	.	.
.	.	(8qggg#/	.	.
.	.	8aaa\)	.	.
.	.	(8qggg#/	.	.
8r	.	8aaa\J)	.	]]
=61	=61	=61	=61	=61
.	.	(8qggg#/	.	p
(8ggn\L	2	8aaa\L)	.	.
.	.	(8qggg#/	.	.
8ee\	4	8aaa\)	.	.
.	.	(8qggg#/	.	.
8gg\J	2	8aaa\J)	.	.
=62	=62	=62	=62	=62
.	.	(8qggg#/	.	.
16ffn\LL	1	8aaa\L)	.	.
16ee\J	2	.	.	.
.	.	(8qggg#/	.	.
8dd\	3	8aaa\)	.	.
.	.	(8qggg#/	.	.
8a\J)	5	8aaa\J)	.	.
=63	=63	=63	=63	=63
.	.	(8qggg#/	.	pp
(>8gn/L	.	8aaa\L)	.	.
.	.	(8qggg#/	.	.
8e/	3	8aaa\)	.	.
.	.	(8qggg#/	.	.
8g/J	1	8aaa\J)	.	.
=64	=64	=64	=64	=64
.	.	(8qggg#/	.	.
16fn/LL	2	8aaa\L)	.	.
16e/JJ	3	.	.	.
.	.	(8qggg#/	.	.
4d/)	4	8aaa\)	.	.
.	.	(8qggg#/	.	.
.	.	8aaa\J)	.	.
!!LO:LB:g=original
=65||	=65||	=65||	=65||	=65||
*k[b-]	*	*k[b-]	*	*
!	!	!	!	!LO:DY:t=%s dolce
(16c#X/LL	4	8.aaa^\L	.	pp
16e/J	.	.	.	.
8a/J)	.	.	.	.
.	.	16ggg\L	.	.
8r	.	16eee\	.	.
.	.	16ggg\JJ	4	.
=66	=66	=66	=66	=66
.	.	(8qaaa/	5	.
(16d/LL	4	8.fff^\L)	3	.
16f/J	.	.	.	.
8a/J)	.	.	.	.
.	.	16eee\L	.	.
8r	.	16ddd\	.	.
.	.	16fff\JJ	4	.
=67	=67	=67	=67	=67
.	.	(8qaaa/	.	.
(16e/LL	4	8.eee^\L)	3	.
16g/J	.	.	.	.
8a/J)	.	.	.	.
.	.	16ccc#X\L	2	.
8r	.	16aa\	.	.
.	.	16ccc#\JJ	.	.
=68	=68	=68	=68	=68
(16f/LL	3	16ddd\LL	3	.
16g/J	.	16eee\J	4	.
8a/J)	.	8fff\	5	.
8r	.	8ddd\J	1	.
=69	=69	=69	=69	=69
8c#X/L	3	16aaa^\LL	5	.
.	.	16ggg\	.	.
8e/	.	16eee\	.	.
.	.	16aa\	.	.
8A/J	.	16eee\	3	.
.	.	16ggg\JJ	5	.
=70	=70	=70	=70	=70
8d/L	2	16fff^\LL	4	.
.	.	16eee\	.	.
8f/	.	16ddd\	.	.
.	.	16aa\	.	.
8A/J	5	16ddd\	3	.
.	.	16fff\JJ	5	.
*clefF4	*	*	*	*
!!LO:LB:g=original
=71	=71	=71	=71	=71
8e\L	1	16eee\LL	4	.
.	.	16ddd\J	.	.
(8qd#X/	.	.	.	.
8e\)	.	8ccc#X\	.	.
8E\J	.	8bbn\J	1	.
=72	=72	=72	=72	=72
8eL 8A\	.	4aa\	3	.
8e 8A\	.	.	.	.
8eJ 8A\	.	8r	.	.
=73	=73	=73	=73	=73
8eL 8A\	.	8eeeL 8aa\	.	<
8e 8A\	.	8eee 8aa\	.	.
8eJ 8A\	.	8eeeJ 8aa\	.	.
=74	=74	=74	=74	=74
8eL 8A\	.	8eeeL 8aa\	.	.
8e 8A\	.	8eee 8aa\	.	.
8eJ 8A\	.	8eeeJ 8aa\	.	[
=75	=75	=75	=75	=75
*	*	*8va	*	*
8GL 8C\	.	8gggL 8ccc\	.	f
8G 8C\	.	8ggg 8ccc\	.	.
8GJ 8C\	.	8gggJ 8ccc\	.	.
=76	=76	=76	=76	=76
8GL 8C\	.	8gggL 8ccc\	.	.
8G 8C\	.	8ggg 8ccc\	.	.
8GJ 8C\	.	8gggJ 8ccc\	.	.
!!LO:PB:g=original
=77	=77	=77	=77	=77
8GL 8C\	.	16ggg\LL	2	.
.	.	16aaa\	.	.
8G 8C\	.	16bbb-\	.	.
.	.	16cccc\	.	.
8GJ 8C\	.	16bbb-\	.	.
.	.	16aaa\JJ	.	.
=78	=78	=78	=78	=78
8GL 8C\	.	16ggg\LL	2	.
.	.	16fff\J	1	.
8G 8C\	.	8eee\	3	.
8GJ 8C\	.	8ddd\J	2	.
*	*	*X8va	*	*
=79	=79	=79	=79	=79
8GL 8C\	.	16ccc\LL	1	.
.	.	16ddd\	.	.
8G 8C\	.	16eee\	.	.
.	.	16fff\	4	.
8GJ 8C\	.	16eee\	.	.
.	.	16ddd\JJ	.	.
=80	=80	=80	=80	=80
8GL 8C\	.	16ccc\LL	1	.
.	.	16bb-\J	3	.
8G 8C\	.	8aa\	2	.
8GJ 8C\	.	8gg\J	1	.
=81	=81	=81	=81	=81
4B- 4G 4C^\	.	16ddd^\LL	5	.
.	.	16bb-\J	.	.
.	.	8aa\	.	.
8r	.	8gg\J	.	.
=82	=82	=82	=82	=82
4B- 4G 4C^\	.	16eee^\LL	5	.
.	.	16bb-\J	3	.
.	.	8aa\	.	.
8r	.	8gg\J	.	.
*clefG2	*	*	*	*
!!LO:LB:g=original
=83	=83	=83	=83	=83
8r	.	16ggg\LL	5	.
.	.	16fff\	.	.
16gg\LL	1	16eee\	.	.
16ff\	2	16ddd\	.	.
16ee\	3	16ccc\	.	.
16dd\JJ	4	16bb-\JJ	4	.
=84	=84	=84	=84	=84
16cc/LL	1	16aa\LL	3	.
16b-/	2	16gg\	2	.
16a/	3	16ff\	1	.
16g/	4	16ee\	3	.
16f/	1	16dd\	.	.
16e/JJ	2	16cc\JJ	.	.
*clefF4	*	*	*	*
=85	=85	=85	=85	=85
16d\LL	3	16b-/LL	3	.
16c\	1	16a/	.	.
16B-\	2	16g/	.	.
16A\	3	16a/	.	.
16G\	4	16b-/	3	.
16F\JJ	1	16cc/JJ	1	.
=86	=86	=86	=86	=86
16E/LL	2	16dd\LL	.	.
16D/	3	16ee\	.	.
16C/	1	16ff\	1	.
16BB-/	.	16gg\	.	.
16AA/	.	16aa\	.	.
16GG/JJ	4	16bb-\JJ	4	.
=87	=87	=87	=87	=87
8FF\L	5	8ccc^\L	5	f
16A\L	3	8aa\	.	.
16B-\J	.	.	.	.
8c\J	.	8ff\J	.	.
!!LO:LB:g=original
=88	=88	=88	=88	=88
8G\L	4	16ee\LL	2	.
.	.	16ff\J	.	.
16A\L	.	8gg\	.	.
16B-\J	.	.	.	.
8c\J	.	8cc\J	.	.
=89	=89	=89	=89	=89
8E\L	5	8bb-^\L	4	.
16A\L	3	8gg\	2	.
16B-\J	.	.	.	.
8c\J	.	8ee\J	1	.
=90	=90	=90	=90	=90
8F\L	5	16ff\LL	2	.
.	.	16aa\J	4	.
16A\L	.	8ccc\	5	.
16B-\J	.	.	.	.
8c\J	.	8ff\J	1	.
=91	=91	=91	=91	=91
8F\L	.	8ccc^\L	5	.
16A\L	.	8aa\	3	.
16B-\J	.	.	.	.
8c\J	.	8ff\J	1	.
=92	=92	=92	=92	=92
8G\L	4	16ee\LL	2	.
.	.	16ff\J	.	.
16A\L	.	8gg\	4	.
16B-\J	.	.	.	.
8c\J	.	8cc\J	1	.
=93	=93	=93	=93	=93
8C\L	5	16ddd\LL	5	.
.	.	16ccc\	.	.
8G\	2	16bb-\	.	.
.	.	16aa\	.	.
8c\J	.	16bb-\	.	.
.	.	16gg\JJ	1	.
!!LO:LB:g=original
=94	=94	=94	=94	=94
8F/L	.	8ff\L	2	.
8FF^/J	.	8fffJ 8ccc 8aa^\	.	.
8r	.	8r	.	.
=95	=95	=95	=95	=95
8C\L	.	8bb-L 8gg\	1 3	.
16Bn\L	3	8ddd 8bb-\	3 5	.
16c\	.	.	.	.
16d\	.	8dddJ 8bb-\	.	.
16c\JJ	2	.	.	.
=96	=96	=96	=96	=96
8F\L	5	8.cccL 8.aa^\	.	.
8f 8c 8A\	.	.	.	.
.	.	16aa\L	.	.
8fJ 8c 8A\	.	16ff\	.	.
.	.	16aa\JJ	3	.
=97	=97	=97	=97	=97
8C\L	.	8ggL 8ee\	1 2	.
16Bn\L	.	8bb- 8gg\	2 4	.
16c\	.	.	.	.
16d\	.	8bb-J 8gg\	.	.
16c\JJ	.	.	.	.
=98	=98	=98	=98	=98
8F\L	.	16aa\LL	3	.
.	.	16gg\	.	.
8f 8c 8A\	.	16ff\	.	.
.	.	16aa\J	.	.
8fJ 8c 8A\	.	8ccc\J	5	.
=99	=99	=99	=99	=99
16C/LL	5	8bb-L 8gg\	1 3	.
16D/	.	.	.	.
16E/	.	8ddd 8bb-\	.	.
16F/	.	.	.	.
16G/	1	8dddJ 8bb-\	.	.
16E/JJ	4	.	.	.
!!LO:LB:g=original
=100	=100	=100	=100	=100
16F\LL	3	8.cccL 8.aa^\	2 4	.
16E\	.	.	.	.
16F\	.	.	.	.
16G\	.	16aa\L	.	.
16A\	1	16ff\	.	.
16F\JJ	4	16aa\JJ	2	.
=101	=101	=101	=101	=101
16G\LL	3	8bbnL 8gg\	1 3	.
16F#X\	.	.	.	.
16G\	.	8eee 8gg\	.	.
16A\	.	.	.	.
16Bn\	1	8dddJ 8ff\	.	.
16G\JJ	4	.	.	.
=102	=102	=102	=102	=102
8c/L	1	4ccc 4ee\	.	.
*clefG2	*	*	*	*
(8qf#X/	3	.	.	.
8g/)	2	.	.	.
(8qbn/	2	.	.	.
8cc/J)	1	8r	.	.
=103	=103	=103	=103	=103
(8c/L	3	16bb-XLL 16gg\	1 3	p
.	.	16cccJ 16aa\	.	.
8d/	.	8ddd 8bb-\	.	.
8e/J	1	8dddJ 8bb-\	.	.
=104	=104	=104	=104	=104
16f/LL	3	8.cccL 8.aa^\	.	.
16g/J	2	.	.	.
8a/	1	.	.	.
.	.	16aa\L	.	.
8c/J)	5	16ff\	.	.
!	!	!LO:N:vis=8	!	!
.	.	16aa\JJ	3	.
=105	=105	=105	=105	=105
(8c#X/L	4	16ggLL 16ee\	1 2	.
.	.	16aaJ 16ff\	1 3	.
8e/	.	8bb- 8gg\	2 4	.
8c#/J	.	8bb-J 8gg\	.	.
!!LO:LB:g=original
=106	=106	=106	=106	=106
16d/LL	3	8.aaL 8.ff^\	1 3	.
16e/J	2	.	.	.
8f/	1	.	.	.
.	.	16ff\L	.	.
8A/J)	5	16dd\	.	.
.	.	16ff\JJ	.	.
=107	=107	=107	=107	=107
8g 8d 8B-/	.	16gg\LL	5	.
.	.	16ff\	.	.
8r	.	16ee\	.	.
.	.	16dd\	.	.
8r	.	16cc\	1	.
.	.	16b-\JJ	3	.
=108	=108	=108	=108	=108
8f 8c/	.	16a\LL	2	.
.	.	16b-\	3	.
8r	.	16cc\	1	.
.	.	16dd\	.	.
8r	.	16ee\	.	.
.	.	16ff\JJ	1	<
=109	=109	=109	=109	=109
8c/L	5	16gg\LL	2	.
.	.	16aa\	3	.
16cc/L	1	16bb-\	4	.
16b-/	.	16ccc\	1	.
16a/	.	16ddd\	.	[[
16g/JJ	4	16eee\JJ	.	.
=110	=110	=110	=110	=110
8f/L	1	8fff\L	4	.
*clefF4	*	*	*	*
8F^>/J	5	8fffJ 8ccc 8aa^\	.	.
8r	.	8r	.	.
!!LO:PB:g=original
=111	=111	=111	=111	=111
*^	*	*	*	*
*	*	*above	*	*	*
!	!	!	!	!	!LO:DY:rj
8f/L	[4.F\	1	8ccc^\L	5	p
8e/	.	1	8aa\	3	.
8d/J	.	2	8ff\J	1	.
=112	=112	=112	=112	=112	=112
8c/L	4.F\]	1	16ee\LL	2	.
.	.	.	16ff\J	3	.
8B-/	.	2	8gg\	4	.
8A/J	.	3	8cc\J	1	.
*v	*v	*	*	*	*
=113	=113	=113	=113	=113
*	*below	*	*	*
8G\L	4	8bb-^\L	4	.
8A\	.	8gg\	2	.
8B-\J	.	8ee\J	1	.
=114	=114	=114	=114	=114
8A\L	3	16ff\LL	2	.
.	.	16aa\J	4	.
8G\	.	8ccc\	5	.
8A\J	.	8ff\J	1	.
=115	=115	=115	=115	=115
8F\L	5	8ccc^\L	5	.
8G\	.	8aa\	3	.
8A\J	.	8ff\J	1	.
=116	=116	=116	=116	=116
8B-\L	2	16ee\LL	2	.
.	.	16ff\J	.	.
8G\	4	8gg\	.	.
8A\J	3	8cc\J	.	.
=117	=117	=117	=117	=117
8B-\L	2	16ddd\LL	5	.
.	.	16ccc\	.	.
8c\	1	16bb-\	.	.
.	.	16aa\	.	.
8C\J	5	16bb-\	3	.
.	.	16gg\JJ	1	.
!!LO:LB:g=original
=118	=118	=118	=118	=118
8F/L	1	8ff\L	2	.
8FF^/J	5	8fffJ 8ccc 8aa^\	.	.
8r	.	8r	.	.
*clefG2	*	*	*	*
=119	=119	=119	=119	=119
8c/L	3	8ggL 8cc\	1 3	f
8f/	.	8aa 8ff\	2 4	.
8f/J	.	8aaJ 8ff\	.	.
=120	=120	=120	=120	=120
16c/LL	3	16ggLL 16cc\	.	.
16c/J	2	16ggJ 16cc\	.	.
8f/	1	8aa 8ff\	.	.
8f/J	2	8aaJ 8ff\	.	.
=121	=121	=121	=121	=121
8c/L	5	8cccL 8gg 8ee\	.	.
8f/	2	8ccc 8aa 8ff\	.	.
8f/J	1	8cccJ 8aa 8ff\	.	.
=122	=122	=122	=122	=122
16c/LL	3	16cccLL 16gg 16ee\	.	.
16c/J	2	16cccJ 16gg 16ee\	.	.
8f/	1	8ccc 8aa 8ff\	.	.
8f/J	.	8cccJ 8aa 8ff\	.	.
=123	=123	=123	=123	=123
8Bn/L	.	8dddL 8gg#X 8ff\	.	.
8c^/J	.	16ccc^\L	5	.
.	.	16aa\	4	.
8r	.	16ff\	2	.
.	.	16cc\JJ	1	.
!!LO:LB:g=original
=124	=124	=124	=124	=124
8e/L	.	8bb-XL 8gg 8cc\	.	.
8f^/J	.	16aa^\L	5	.
.	.	16ff\	4	.
8r	.	16cc\	.	.
.	.	16a\JJ	.	.
*clefF4	*	*	*	*
=125	=125	=125	=125	=125
*	*	*brackettup	*	*
!	!	!LO:TX:t=P:problem:brackettup	!	!
!	!	!LO:TUP:a	!	!
8B-\L	2	24gg\LL	.	.
.	.	24aa\	.	.
.	.	24gg\J	.	.
8c\	.	8ff\	.	.
8C\J	.	8ee\J	.	.
=126	=126	=126	=126	=126
8F/L	.	4ff\	.	>
8FF/	.	.	.	.
8FF/J	.	8r	.	]
=127	=127	=127	=127	=127
8E-X/L	.	8cc^/L	5	p
8FF/	.	8a/	3	.
8FF/J	.	8f/J	1	.
=128	=128	=128	=128	=128
8D/L	.	16e/LL	2	.
.	.	16f/J	.	.
8FF/	.	8g/	.	.
8FF/J	.	8e/J	.	.
=129	=129	=129	=129	=129
8D-X/L	2	8b-^/L	4	.
8FF/	.	8g/	.	.
8FF/J	.	8e/J	.	.
!!LO:LB:g=original
=130	=130	=130	=130	=130
8C/L	1	16f/LL	2	.
.	.	16g/J	.	.
8FF/	.	8a/	4	.
8FF/J	.	8f/J	2	>
=131	=131	=131	=131	=131
8BBn/L	.	16f/LL	1	.
.	.	16g/J	.	.
8FF/	.	8a-X/	.	.
8FF/J	.	8f/J	1	.
=132	=132	=132	=132	=132
8BB-X/L	1	16e/LL	2	.
.	.	16f/J	3	.
8FF/	.	8g/J	4	]
8FF/J	.	8r	.	.
=133	=133	=133	=133	=133
8AA/L	3	16f/LL	5	pp
.	.	16c/	2	.
8E/	1	16d/	1	.
.	.	16e/	2	.
8D/J	3	16f/	3	.
.	.	16g/JJ	4	.
=134	=134	=134	=134	=134
8C\L	4	16a/LL	5	.
.	.	16e/	2	.
8G\	1	16f/	1	.
.	.	16g/	2	.
8F\J	3	16a/	3	.
.	.	16b-/JJ	4	.
!!LO:LB:g=original
=135	=135	=135	=135	=135
8E\L	4	16cc\LL	5	<
.	.	16a\	2	.
8c\	1	16b-\	3	.
.	.	16cc\	1	.
8B-\J	3	16dd\	2	.
.	.	16ee\JJ	3	.
*clefG2	*	*	*	*
=136	=136	=136	=136	=136
8A/L	4	16ff\LL	5	.
.	.	16cc\	2	.
8e/	1	16dd\	1	.
.	.	16ee\	2	.
8d/J	3	16ff\	3	.
.	.	16gg\JJ	4	.
=137	=137	=137	=137	=137
8c/L	4	16aa\LL	5	.
.	.	16ee\	2	.
8g/	1	16ff\	1	.
.	.	16gg\	.	.
8f/J	3	16aa\	.	.
.	.	16bb-\JJ	4	.
=138	=138	=138	=138	=138
8e/L	4	16ccc\LL	5	.
.	.	16aa\	2	.
8cc/	1	16bb-\	3	.
.	.	16ccc\	1	.
8b-/J	2	16ddd\	2	.
.	.	16eee\JJ	3	.
=139	=139	=139	=139	=139
4a/	3	4fff\	4	f
8r	.	8r	.	.
!!LO:LB:g=original
=140	=140	=140	=140	=140
4g/	.	4ggg 4ddd 4bbn\	.	.
8r	.	8r	.	.
=141	=141	=141	=141	=141
4c/	.	4aaa 4fff 4ccc\	.	.
8r	.	8r	.	.
*clefF4	*	*	*	*
=142	=142	=142	=142	=142
4C/	.	4ee 4b-X 4g\	.	.
8r	.	8r	.	.
=143	=143	=143	=143	=143
8F/L	.	8ffL 8cc 8a/	.	ff
8F 8FF^/	.	8f^/	.	.
8FJ 8FF^/	.	8f^/J	.	.
=144	=144	=144	=144	=144
4F 4FF^>/	.	4f^>/	.	.
8r	.	8r	.	.
==	==	==	==	==
*-	*-	*-	*-	*-
!!!system-decoration: {(g1)}
!!!RDF**kern: i = editorial accidental
!!!RDF**kern: > = above
!!!RDF**kern: < = below
!!!RDF**kern: N = linked
!!!RDF**dynam: > = "dim.", fontstyle= "italic"
!!!ENC: Berenika Jozajtis
!!!EED: Katarzyna Serwa
!!!END: 2023-10-09
!!!EEV: 2023-10-23
